lib/svg/diff-modified.svg

<svg xmlns="http://www.w3.org/2000/svg" width="14" height="16" viewBox="0 0 14 16"><path d="M13 1H1c-.55 0-1 .45-1 1v12c0 .55.45 1 1 1h12c.55 0 1-.45 1-1V2c0-.55-.45-1-1-1zm0 13H1V2h12v12zM4 8c0-1.66 1.34-3 3-3s3 1.34 3 3-1.34 3-3 3-3-1.34-3-3z"/></svg>

<?xml version="1.0" encoding="UTF-8" standalone="no"?>
<svg width="14px" height="16px" viewBox="0 0 14 16" version="1.1" xmlns="http://www.w3.org/2000/svg" xmlns:xlink="http://www.w3.org/1999/xlink">
    <!-- Generator: Sketch 3.8.3 (29802) - http://www.bohemiancoding.com/sketch -->
    <title>diff-modified</title>
    <desc>Created with Sketch.</desc>
    <defs></defs>
    <g id="Octicons" stroke="none" stroke-width="1" fill="none" fill-rule="evenodd">
        <g id="diff-modified" fill="#000000">
            <path d="M13,1 L1,1 C0.45,1 0,1.45 0,2 L0,14 C0,14.55 0.45,15 1,15 L13,15 C13.55,15 14,14.55 14,14 L14,2 C14,1.45 13.55,1 13,1 L13,1 Z M13,14 L1,14 L1,2 L13,2 L13,14 L13,14 Z M4,8 C4,6.34 5.34,5 7,5 C8.66,5 10,6.34 10,8 C10,9.66 8.66,11 7,11 C5.34,11 4,9.66 4,8 L4,8 Z" id="Shape"></path>
        </g>
    </g>
</svg>
